component-icons/svg/scrollview.svg

<?xml version="1.0" encoding="utf-8"?>
<!-- Generator: Adobe Illustrator 24.2.3, SVG Export Plug-In . SVG Version: 6.00 Build 0)  -->
<svg version="1.1" id="Layer_1" xmlns="http://www.w3.org/2000/svg" xmlns:xlink="http://www.w3.org/1999/xlink" x="0px" y="0px"
	 width="24px" height="24px" viewBox="0 0 24 24" enable-background="new 0 0 24 24" xml:space="preserve">
<path d="M7,21h2v-2H7V21z M15,21h2v-2h-2V21z M11,21h2v-2h-2V21z M0,3v14h24V3H0z M22,15H2V5h20V15z M18,7H6v2h10L18,7z M14,11H6v2
	h6L14,11z"/>
</svg>

<svg id="Layer_1" data-name="Layer 1" xmlns="http://www.w3.org/2000/svg" viewBox="0 0 24 24">
  <defs>
    <style>
      .cls-1 {
        fill: gray;
      }
    </style>
  </defs>
  <title>scrollview</title>
  <path class="cls-1" d="M7,21H9V19H7Zm8,0h2V19H15Zm-4,0h2V19H11ZM0,3V17H24V3ZM22,15H2V5H22ZM18,7H6V9H16Zm-4,4H6v2h6Z"/>
</svg>
